img/socialLogo2.svg

<svg width="8" height="16" viewBox="0 0 8 16" fill="none" xmlns="http://www.w3.org/2000/svg">
<path opacity="0.6" d="M0.255436 8.52154H1.99143V15.7419C1.99143 15.8844 2.10576 15.9999 2.24687 15.9999H5.19031C5.33141 15.9999 5.44574 15.8844 5.44574 15.7419V8.55555H7.44141C7.57117 8.55555 7.68035 8.45718 7.69516 8.32696L7.99826 5.66879C8.00659 5.59566 7.98365 5.52242 7.93522 5.46755C7.88674 5.41264 7.81736 5.3812 7.74456 5.3812H5.44585V3.71493C5.44585 3.21264 5.71354 2.95793 6.24158 2.95793C6.31683 2.95793 7.74456 2.95793 7.74456 2.95793C7.88567 2.95793 8 2.84237 8 2.69986V0.259913C8 0.117358 7.88567 0.00184864 7.74456 0.00184864H5.67323C5.65862 0.00112606 5.62618 -6.10352e-05 5.57836 -6.10352e-05C5.21897 -6.10352e-05 3.96973 0.0712163 2.98293 0.988378C1.88956 2.00474 2.04155 3.22167 2.07787 3.43266V5.38115H0.255436C0.114333 5.38115 0 5.49666 0 5.63922V8.26342C0 8.40598 0.114333 8.52154 0.255436 8.52154Z" fill="white"/>
</svg>

<svg width="8" height="16" fill="none" xmlns="http://www.w3.org/2000/svg"><path opacity=".6" d="M.255 8.522h1.736v7.22c0 .142.115.258.256.258H5.19a.257.257 0 00.256-.258V8.556H7.44c.13 0 .24-.099.254-.229l.303-2.658a.26.26 0 00-.063-.201.254.254 0 00-.19-.087h-2.3V3.715c0-.502.269-.757.797-.757h1.503A.257.257 0 008 2.7V.26a.257.257 0 00-.255-.258H5.673A2.01 2.01 0 005.578 0C5.22 0 3.97.07 2.983.988c-1.093 1.017-.941 2.234-.905 2.445V5.38H.255A.257.257 0 000 5.64v2.624c0 .143.114.259.255.259z" fill="#fff"/></svg>
